coffe/adobe_xd.svg

<svg width="50" height="48" viewBox="0 0 50 48" fill="none" xmlns="http://www.w3.org/2000/svg">
<path fill-rule="evenodd" clip-rule="evenodd" d="M26.5611 25.4154C26.5611 20.636 29.6377 16.9026 34.6833 16.9026H34.6856C35.1148 16.9026 35.3404 16.9026 35.7498 16.9436V11.6103C35.7498 11.4872 35.8524 11.4051 35.9549 11.4051H39.2571C39.4212 11.4051 39.4622 11.4666 39.4622 11.5692V30.318C39.4622 30.8718 39.4622 31.5693 39.5648 32.3282C39.5648 32.4718 39.5648 32.4924 39.4417 32.5539C37.7188 33.3744 35.9139 33.7435 34.191 33.7435C29.7402 33.7435 26.5611 30.9949 26.5611 25.4154ZM34.5602 19.959C35.0525 19.959 35.4422 20.0205 35.7498 20.1641H35.7293V30.318C35.3396 30.4821 34.8063 30.5437 34.3141 30.5437C32.0169 30.5437 30.253 29.0257 30.253 25.2513C30.253 21.9488 31.9759 19.959 34.5602 19.959Z" fill="#A07250"/>
<path fill-rule="evenodd" clip-rule="evenodd" d="M0 0V48H49.2252V0H0ZM47.1742 2.05135H2.05105V45.9488H47.1742V2.05135Z" fill="#A07250"/>
<path d="M19.567 22.0923L25.31 33.2308C25.4125 33.3949 25.351 33.559 25.1869 33.559H21.6181C21.3925 33.559 21.2899 33.4975 21.1874 33.2923C19.8747 30.5847 18.5415 27.7744 17.1673 24.8616H17.1263C15.8956 27.6103 14.542 30.6051 13.2293 33.3128C13.1267 33.4769 13.0242 33.5385 12.8601 33.5385H9.45533C9.25022 33.5385 9.22974 33.3743 9.33229 33.2512L14.9522 22.4411L9.51686 11.6924C9.3938 11.5283 9.51687 11.3846 9.66045 11.3846H13.1883C13.3934 11.3846 13.4959 11.4257 13.5574 11.6103C14.8496 14.3385 16.1623 17.0256 17.3929 19.7743H17.4339C18.6236 17.0666 19.9362 14.3384 21.1874 11.6513L21.1911 11.6453C21.2914 11.4847 21.3539 11.3846 21.5566 11.3846H24.8587C25.0228 11.3846 25.0844 11.5077 24.9818 11.6924L19.567 22.0923Z" fill="#A07250"/>
<path fill-rule="evenodd" clip-rule="evenodd" d="M2.05105 2.05135H47.1742V45.9488H2.05105V2.05135ZM34.6833 16.9026C29.6377 16.9026 26.5611 20.636 26.5611 25.4154C26.5611 30.9949 29.7402 33.7435 34.191 33.7435C35.9139 33.7435 37.7188 33.3744 39.4417 32.5539C39.5648 32.4924 39.5648 32.4718 39.5648 32.3282C39.4622 31.5693 39.4622 30.8718 39.4622 30.318V11.5692C39.4622 11.4666 39.4212 11.4051 39.2571 11.4051H35.9549C35.8524 11.4051 35.7498 11.4872 35.7498 11.6103V16.9436C35.3404 16.9026 35.1148 16.9026 34.6856 16.9026H34.6833ZM25.31 33.2308L19.567 22.0923L24.9818 11.6924C25.0844 11.5077 25.0228 11.3846 24.8587 11.3846H21.5566C21.3539 11.3846 21.2914 11.4847 21.1911 11.6453L21.1874 11.6513C19.9362 14.3384 18.6236 17.0666 17.4339 19.7743H17.3929C16.1623 17.0256 14.8496 14.3385 13.5574 11.6103C13.4959 11.4257 13.3934 11.3846 13.1883 11.3846H9.66045C9.51687 11.3846 9.3938 11.5283 9.51686 11.6924L14.9522 22.4411L9.33229 33.2512C9.22974 33.3743 9.25022 33.5385 9.45533 33.5385H12.8601C13.0242 33.5385 13.1267 33.4769 13.2293 33.3128C14.542 30.6051 15.8956 27.6103 17.1263 24.8616H17.1673C18.5415 27.7744 19.8747 30.5847 21.1874 33.2923C21.2899 33.4975 21.3925 33.559 21.6181 33.559H25.1869C25.351 33.559 25.4125 33.3949 25.31 33.2308Z" fill="#E3C4AD"/>
<path d="M35.7498 20.1641C35.4422 20.0205 35.0525 19.959 34.5602 19.959C31.9759 19.959 30.253 21.9488 30.253 25.2513C30.253 29.0257 32.0169 30.5437 34.3141 30.5437C34.8063 30.5437 35.3396 30.4821 35.7293 30.318V20.1641H35.7498Z" fill="#E3C4AD"/>
</svg>

<svg xmlns="http://www.w3.org/2000/svg" width="49" height="48" fill="none"><path fill="#A07250" fill-rule="evenodd" d="M26.6 25.4c0-4.8 3-8.5 8-8.5h1.1v-5.3l.3-.2h3.3c.1 0 .2 0 .2.2v21c-1.8.8-3.6 1.1-5.3 1.1-4.5 0-7.6-2.7-7.6-8.3Zm8-5.4c.5 0 .8 0 1.1.2v10.1c-.4.2-.9.2-1.4.2-2.3 0-4-1.5-4-5.2 0-3.4 1.7-5.3 4.3-5.3Z" clip-rule="evenodd"/><path fill="#A07250" fill-rule="evenodd" d="M0 0v48h49.2V0H0Zm47.2 2H2v44h45V2Z" clip-rule="evenodd"/><path fill="#A07250" d="m19.6 22 5.7 11.2c.1.2 0 .4-.1.4h-3.6a886 886 0 0 1-4.5-8.7 315 315 0 0 1-4.2 8.6H9.5c-.2 0-.3-.1-.2-.2L15 22.4 9.5 11.7c-.1-.2 0-.3.2-.3h3.5c.2 0 .3 0 .4.2l3.8 8.2 3.8-8.1c0-.2.2-.3.4-.3h3.3c.1 0 .2.1 0 .3L19.7 22Z"/><path fill="#E3C4AD" fill-rule="evenodd" d="M2 2h45.2v44H2V2ZM34.8 17c-5 0-8.1 3.7-8.1 8.5 0 5.6 3.1 8.3 7.6 8.3 1.7 0 3.5-.3 5.2-1.1.2-.1.2-.1.2-.3l-.1-2V11.6c0-.1 0-.2-.2-.2H36c-.1 0-.3 0-.3.2V17h-1Zm-9.4 16.3-5.7-11.1L25 11.7l-.1-.3h-3.3c-.2 0-.3 0-.4.2l-3.8 8.2-3.8-8.2c-.1-.2-.2-.2-.4-.2H9.7c-.2 0-.3.1-.2.3L15 22.4 9.3 33.3s0 .2.2.2h3.4c.1 0 .2 0 .3-.2a315 315 0 0 0 4-8.4l4 8.4c0 .2.2.3.4.3h3.6c.2 0 .2-.2.1-.4Z" clip-rule="evenodd"/><path fill="#E3C4AD" d="M35.7 20.2c-.3-.2-.6-.2-1.1-.2-2.6 0-4.3 2-4.3 5.3 0 3.7 1.7 5.2 4 5.2.5 0 1 0 1.4-.2V20.2Z"/></svg>
